public/logo_meetmemo.svg

<svg width="30" height="28" viewBox="0 0 30 28" fill="none" xmlns="http://www.w3.org/2000/svg">
<path d="M27.9726 1.74655C27.1458 0.895578 26.0474 0.470093 24.9474 0.471602C24.9339 0.471602 24.9195 0.470848 24.906 0.470848C24.875 0.470848 24.8441 0.472357 24.8132 0.473111C24.8116 0.473111 24.8101 0.473111 24.8094 0.473111C23.5216 0.502533 22.3764 1.10908 21.6235 2.04529L14.7871 8.6886L7.55685 1.6613C6.72248 0.850314 5.6384 0.455005 4.55959 0.470848C4.5528 0.470848 4.54601 0.470093 4.53922 0.470093C2.21339 0.470093 0.328125 2.35536 0.328125 4.68119V23.6696C0.328125 25.9954 2.21339 27.8807 4.53922 27.8807C6.86506 27.8807 8.75033 25.9954 8.75033 23.6696V14.5662L11.2595 17.0044C11.3915 17.196 11.5409 17.3801 11.7084 17.5521C12.5488 18.4167 13.6698 18.8422 14.7871 18.8271C15.9044 18.8422 17.0254 18.4167 17.8658 17.5521C18.0333 17.3794 18.1827 17.196 18.3147 17.0044L20.6949 14.6914V23.6696C20.6949 25.9954 22.5801 27.8807 24.906 27.8807C27.2318 27.8807 29.1171 25.9954 29.1171 23.6696V5.30282C29.3034 4.049 28.9247 2.72577 27.9726 1.74655Z" fill="white"/>
<path opacity="0.8" d="M4.57047 27.8814C2.24464 27.8814 0.359375 25.9961 0.359375 23.6703V4.68184C0.359375 2.356 2.24464 0.470741 4.57047 0.470741C6.89631 0.470741 8.78157 2.356 8.78157 4.68184V23.6703C8.78157 25.9953 6.89631 27.8814 4.57047 27.8814Z" fill="url(#paint0_linear_144_237)"/>
<path opacity="0.8" d="M24.9377 27.8814C22.6118 27.8814 20.7266 25.9961 20.7266 23.6703V4.68184C20.7266 2.356 22.6118 0.470741 24.9377 0.470741C27.2635 0.470741 29.1488 2.356 29.1488 4.68184V23.6703C29.1488 25.9953 27.2635 27.8814 24.9377 27.8814Z" fill="url(#paint1_linear_144_237)"/>
<path opacity="0.8" d="M17.8986 17.5529C16.2774 19.2209 13.6113 19.2586 11.9441 17.6381L1.71959 7.70183C0.0515929 6.08061 0.013873 3.41454 1.63434 1.7473C3.25556 0.0793033 5.92163 0.0415826 7.58887 1.66205L17.8133 11.5983C19.4813 13.2188 19.5191 15.8849 17.8986 17.5529Z" fill="url(#paint2_linear_144_237)"/>
<path opacity="0.8" d="M29.1327 24.0529V4.29871C29.1327 4.29871 28.6732 0.929527 24.8446 0.470093C24.8446 0.470093 21.1691 0.470093 20.7097 4.45185C20.2503 8.43361 22.3943 11.3426 23.9257 12.5678C25.4572 13.7929 29.4382 17.3152 29.1327 24.0529Z" fill="url(#paint3_linear_144_237)"/>
<path opacity="0.8" d="M0.313604 24.0528V4.29865C0.313604 4.29865 0.773038 0.929466 4.60165 0.470032C4.60165 0.470032 8.27712 0.470032 8.73656 4.45179C9.19599 8.43355 7.05197 11.3425 5.52052 12.5677C3.98907 13.7929 0.0073148 17.3152 0.313604 24.0528Z" fill="url(#paint4_linear_144_237)"/>
<path opacity="0.8" d="M11.7401 17.5529C13.3613 19.2209 16.0274 19.2586 17.6946 17.6381L27.9191 7.70183C29.5871 6.08061 29.6248 3.41454 28.0044 1.7473C26.3831 0.0793033 23.7171 0.0415826 22.0498 1.66205L11.8253 11.5976C10.1574 13.2188 10.1189 15.8849 11.7401 17.5529Z" fill="url(#paint5_linear_144_237)"/>
<defs>
<linearGradient id="paint0_linear_144_237" x1="4.57034" y1="0.470326" x2="4.57034" y2="27.881" gradientUnits="userSpaceOnUse">
<stop offset="1.22539e-06" stop-color="#82D8F1"/>
<stop offset="1" stop-color="#D1FFFF"/>
</linearGradient>
<linearGradient id="paint1_linear_144_237" x1="24.9374" y1="0.470326" x2="24.9374" y2="27.881" gradientUnits="userSpaceOnUse">
<stop offset="1.22539e-06" stop-color="#82D8F1"/>
<stop offset="1" stop-color="#D1FFFF"/>
</linearGradient>
<linearGradient id="paint2_linear_144_237" x1="0.443093" y1="9.64972" x2="19.0896" y2="9.64972" gradientUnits="userSpaceOnUse">
<stop offset="1.1508e-06" stop-color="#648BF2"/>
<stop offset="0.5011" stop-color="#05DAEF"/>
<stop offset="1" stop-color="#FDD2FF"/>
</linearGradient>
<linearGradient id="paint3_linear_144_237" x1="24.8979" y1="0.470432" x2="24.8979" y2="24.0528" gradientUnits="userSpaceOnUse">
<stop offset="6.81957e-07" stop-color="#707AF5"/>
<stop offset="1" stop-color="#A9F6FC"/>
</linearGradient>
<linearGradient id="paint4_linear_144_237" x1="4.5481" y1="0.470371" x2="4.5481" y2="24.0527" gradientUnits="userSpaceOnUse">
<stop offset="6.81957e-07" stop-color="#707AF5"/>
<stop offset="1" stop-color="#A9F6FC"/>
</linearGradient>
<linearGradient id="paint5_linear_144_237" x1="19.872" y1="18.829" x2="19.872" y2="0.470426" gradientUnits="userSpaceOnUse">
<stop offset="9.48346e-07" stop-color="#FFD1FF"/>
<stop offset="1" stop-color="#A553E6"/>
</linearGradient>
</defs>
</svg>

<svg xmlns="http://www.w3.org/2000/svg" width="30" height="28" fill="none" viewBox="0 0 30 28"><path fill="#fff" d="M27.973 1.747A4.2 4.2 0 0 0 24.947.472L24.906.47l-.093.002h-.004a4.2 4.2 0 0 0-3.186 1.572L14.788 8.69 7.557 1.66A4.2 4.2 0 0 0 4.56.471h-.02A4.21 4.21 0 0 0 .327 4.68v18.99a4.211 4.211 0 1 0 8.422 0v-9.104l2.51 2.438q.197.289.448.548a4.2 4.2 0 0 0 3.08 1.275 4.2 4.2 0 0 0 3.527-1.823l2.38-2.313v8.979a4.21 4.21 0 1 0 8.422 0V5.303a4.2 4.2 0 0 0-1.144-3.556"/><path fill="url(#a)" d="M4.57 27.881a4.21 4.21 0 0 1-4.21-4.21V4.68a4.211 4.211 0 1 1 8.422 0v18.99a4.21 4.21 0 0 1-4.212 4.21" opacity=".8"/><path fill="url(#b)" d="M24.938 27.881a4.21 4.21 0 0 1-4.211-4.21V4.68a4.21 4.21 0 1 1 8.422 0v18.99a4.21 4.21 0 0 1-4.211 4.21" opacity=".8"/><path fill="url(#c)" d="M17.899 17.553a4.21 4.21 0 0 1-5.955.085L1.72 7.702a4.211 4.211 0 0 1 5.869-6.04l10.224 9.936a4.21 4.21 0 0 1 .086 5.955" opacity=".8"/><path fill="url(#d)" d="M29.133 24.053V4.299S28.673.929 24.845.47c0 0-3.676 0-4.135 3.982-.46 3.982 1.684 6.89 3.216 8.116 1.531 1.225 5.512 4.747 5.207 11.485" opacity=".8"/><path fill="url(#e)" d="M.314 24.053V4.299S.773.929 4.602.47c0 0 3.675 0 4.135 3.982s-1.685 6.89-3.216 8.116S.007 17.315.314 24.053" opacity=".8"/><path fill="url(#f)" d="M11.74 17.553a4.21 4.21 0 0 0 5.955.085l10.224-9.936a4.211 4.211 0 0 0-5.87-6.04l-10.224 9.936a4.21 4.21 0 0 0-.085 5.955" opacity=".8"/><defs><linearGradient id="a" x1="4.57" x2="4.57" y1=".47" y2="27.881" gradientUnits="userSpaceOnUse"><stop offset="0" stop-color="#82d8f1"/><stop offset="1" stop-color="#d1ffff"/></linearGradient><linearGradient id="b" x1="24.937" x2="24.937" y1=".47" y2="27.881" gradientUnits="userSpaceOnUse"><stop offset="0" stop-color="#82d8f1"/><stop offset="1" stop-color="#d1ffff"/></linearGradient><linearGradient id="c" x1=".443" x2="19.09" y1="9.65" y2="9.65" gradientUnits="userSpaceOnUse"><stop offset="0" stop-color="#648bf2"/><stop offset=".501" stop-color="#05daef"/><stop offset="1" stop-color="#fdd2ff"/></linearGradient><linearGradient id="d" x1="24.898" x2="24.898" y1=".47" y2="24.053" gradientUnits="userSpaceOnUse"><stop offset="0" stop-color="#707af5"/><stop offset="1" stop-color="#a9f6fc"/></linearGradient><linearGradient id="e" x1="4.548" x2="4.548" y1=".47" y2="24.053" gradientUnits="userSpaceOnUse"><stop offset="0" stop-color="#707af5"/><stop offset="1" stop-color="#a9f6fc"/></linearGradient><linearGradient id="f" x1="19.872" x2="19.872" y1="18.829" y2=".47" gradientUnits="userSpaceOnUse"><stop offset="0" stop-color="#ffd1ff"/><stop offset="1" stop-color="#a553e6"/></linearGradient></defs></svg>
